X: 1
T: Peter Street
R: reel
M: 4/4
L: 1/8
K: Amaj
A2 (3cBA eA (3cBA|eAaA gAfA|eA (3cBA eAfA|BEdE cEBE|
A2 (3cBA eA (3cBA|eAaA gAfA|efec eaec|BABc A4:|
|:E2 (3GFE BE (3GFE|BEdE cEBE|A2 (3cBA eA (3cBA|eAaA gAfA|
e^dec agaf|e^dec agaf|ecag fedc|BAGF EFGE:||


Tune 1171	Setting 14438

